**kern	**text	**kern	**text	**kern	**text	**kern	**text	**kern	**text	**cdata-harm
*staff5	*staff5	*staff4	*staff4	*staff3	*staff3	*staff2	*staff2	*staff1	*staff1	*
=1-	=1-	=1-	=1-	=1-	=1-	=1-	=1-	=1-	=1-	=1-
*clefF4	*	*clefGv2	*	*clefG2	*	*clefG2	*	*clefG2	*	*
*k[]	*	*k[]	*	*k[]	*	*k[]	*	*k[]	*	*
*M4/4	*	*M4/4	*	*M4/4	*	*M4/4	*	*M4/4	*	*
1r	.	1r	.	1r	.	1r	.	2dd\	Dal	<CON_5v
.	.	.	.	.	.	.	.	4a/	mio	.
.	.	.	.	.	.	.	.	4b\	bel	.
=2	=2	=2	=2	=2	=2	=2	=2	=2	=2	.
1r	.	1r	.	1r	.	2a/	Dal	4.cc\	lau-	.
.	.	.	.	.	.	.	.	8b\	.	.
.	.	.	.	.	.	4d/	mio	4a/	.	.
.	.	.	.	.	.	4e/	bel	4g/	roA-	.
=3	=3	=3	=3	=3	=3	=3	=3	=3	=3	.
1r	.	2d\	Dal	1r	.	2f/	lau-	4.a/	mo-	.
.	.	.	.	.	.	.	.	8b\	.	.
.	.	4A/	mio	.	.	4e/	ro	4cc\	.	.
.	.	4B\	bel	.	.	4g/	Dal	4dd\	.	.
=4	=4	=4	=4	=4	=4	=4	=4	=4	=4	.
2A\	Dal	4.c\	lau-	1r	.	4e/	mio	4ee\	re	.
.	.	.	.	.	.	2a/	bel	4ee\	Dal	.
.	.	8B\	.	.	.	.	.	.	.	.
4D\	mio	4A/	.	.	.	.	.	4ff\	mio	.
4E\	bel	4G/	roA-	.	.	[4cc\	lau-	4ee\	bel	.
=5	=5	=5	=5	=5	=5	=5	=5	=5	=5	.
4.F\	lau-	4.A/	mo-	2a/	Dal	4cc\]	.	4cc\	lau-	.
.	.	.	.	.	.	4dd\	roA-	4ff\	roA-	.
8G\	.	8B\	.	.	.	.	.	.	.	.
4A\	.	4c\	.	4a/	mio	4.cc\	mo-	2ee\	mo-	.
4A\	roA-	[4A/	re	4e/	bel	.	.	.	.	.
.	.	.	.	.	.	8b\	.	.	.	.
=6	=6	=6	=6	=6	=6	=6	=6	=6	=6	.
2D\	mo-	4A/]	.	4.f/	lau-	8a/L	.	4dd\	re	.
.	.	.	.	.	.	8g/J	.	.	.	.
.	.	4A/	Ne	.	.	[4a/	.	4ff\	Ne	.
.	.	.	.	8g/	.	.	.	.	.	.
4D\	re	4d\	tras-	4a/	.	8a/L]	.	4ff\	tras-	.
.	.	.	.	.	.	8g/J	.	.	.	.
4D\	Ne	4d\	se	4a/	roA-	4f/	.	4dd\	se	.
=7	=7	=7	=7	=7	=7	=7	=7	=7	=7	.
4A\	tras-	2c\	l'es-	2a/	mo-	4e/	re	4ee\	l'es-	.
4A\	se	.	.	.	.	4e/	Ne	4cc\	cae'l	.
8F\L	l'es-	2c\	cae'l	4a/	re	4a/	tras-	2cc\	fo-	>
8G\J	.	.	.	.	.	.	.	.	.	.
8A\L	.	.	.	4f/	Ne	4a/	se	.	.	.
8B\J	.	.	.	.	.	.	.	.	.	.
=8	=8	=8	=8	=8	=8	=8	=8	=8	=8	.
4c\	.	1c\	fo-	4e/	tras-	4g/	l'es-	2cc\	co	.
4F\	cae'l	.	.	4f/	se	4f/	cae'l	.	.	.
2C/	fo-	.	.	4g/	l'es-	2e/	fo-	4r	.	<CON_2v
.	.	.	.	4g/	cae'l	.	.	4cc\	Con	.
=9	=9	=9	=9	=9	=9	=9	=9	=9	=9	.
1F\	co	1c\	co	1a/	fo-	4f/	co	4cc\	ques-	.
.	.	.	.	.	.	4cc\	Con	4a/	ta	.
.	.	.	.	.	.	4cc\	ques-	[2ff\	pre-	.
.	.	.	.	.	.	4a/	ta	.	.	.
=10	=10	=10	=10	=10	=10	=10	=10	=10	=10	.
1r	.	1r	.	1a/	co	2.cc\	pre-	4ff\]	.	.
.	.	.	.	.	.	.	.	8ee\L	.	.
.	.	.	.	.	.	.	.	8dd\J	.	.
.	.	.	.	.	.	.	.	2ee\	.	.
.	.	.	.	.	.	8b/L	.	.	.	.
.	.	.	.	.	.	8a/J	.	.	.	.
=11	=11	=11	=11	=11	=11	=11	=11	=11	=11	.
1r	.	2r	.	2r	.	2b\	.	2dd\	se	.
.	.	[2d\	e	2f#/	e	4a/	see	4r	.	><HOM_3v+imit_1v
.	.	.	.	.	.	4a/	con	[4dd\	e	.
=12	=12	=12	=12	=12	=12	=12	=12	=12	=12	.
1r	.	4d\]	.	4f/	.	2a/	quel	4dd\]	.	.
.	.	4d\	con	4f/	con	.	.	4dd\	con	.
.	.	2G/	quel	2g/	quel	2b\	miar-	2dd\	quel	.
=13	=13	=13	=13	=13	=13	=13	=13	=13	=13	.
1r	.	4c\	miar-	4g/	miar-	4cc\	seil	4ee\	miar-	.
.	.	4d\	seil	4f/	seil	2a/	co-	4dd\	seil	.
.	.	2e\	co-	[2e/	co-	.	.	2b\	co-	.
.	.	.	.	.	.	4g/	.	.	.	.
=14	=14	=14	=14	=14	=14	=14	=14	=14	=14	.
2r	.	2A/	re	2e/]	.	1a/	re	1cc#\	re	>
2A\	Et	4r	.	2e/	re	.	.	.	.	<CON_5v
.	.	[4e\	Et	.	.	.	.	.	.	.
=15	=15	=15	=15	=15	=15	=15	=15	=15	=15	.
2G\	in-	4e\]	.	2r	.	1r	.	1r	.	.
.	.	2d\	in-	.	.	.	.	.	.	.
2F\	di&agrave;	.	.	4r	.	.	.	.	.	.
.	.	[4c\	di&agrave;	[4a/	Et	.	.	.	.	.
=16	=16	=16	=16	=16	=16	=16	=16	=16	=16	.
2E\	po-	4c\]	.	4a/]	.	1r	.	1r	.	.
.	.	2B\	po-	2g/	in-	.	.	.	.	.
2D\	co&agrave;	.	.	.	.	.	.	.	.	.
.	.	4A/	co&agrave;	4f/	di&agrave;	.	.	.	.	.
=17	=17	=17	=17	=17	=17	=17	=17	=17	=17	.
2A\	po-	2c\	po-	4e/	po-	2a/	Et	2r	.	.
.	.	.	.	4f#/	co&agrave;	.	.	.	.	.
4E\	co	4B\	co	2g/	po-	2g/	in-	2ee\	Et	.
4E\	Sec-	4c\	Sec-	.	.	.	.	.	.	.
=18	=18	=18	=18	=18	=18	=18	=18	=18	=18	.
4F\	cos-	4.A/	cos-	2a/	co	2f/	di&agrave;	2dd\	in-	.
4D\	siil	.	.	.	.	.	.	.	.	.
.	.	8B\	.	.	.	.	.	.	.	.
2A\	lau-	4c\	.	2a/	Sec-	4e/	po-	2cc\	di&agrave;	.
.	.	4A/	siil	.	.	4f#/	co&agrave;	.	.	.
=19	=19	=19	=19	=19	=19	=19	=19	=19	=19	.
4G\	ro	4.B\	lau-	4.d/	cos-	4g/	po-	2b\	po-	.
4G\	Sec-	.	.	.	.	2d/	co	.	.	.
.	.	8c\	.	8e/	.	.	.	.	.	.
4D\	cos-	4d\	.	2f/	.	.	.	2a/	co&agrave;	.
4D\	siil	4A/	ro	.	.	[4a/	Sec-	.	.	.
=20	=20	=20	=20	=20	=20	=20	=20	=20	=20	.
2A\	lau-	1r	.	4e/	siil	4a/]	.	2cc\	po-	.
.	.	.	.	2a/	lau-	2e/	cos-	.	.	.
2E\	ro	.	.	.	.	.	.	4b\	co	.
.	.	.	.	4g/	ro	4e/	siil	4b\	Sec-	.
=21	=21	=21	=21	=21	=21	=21	=21	=21	=21	.
1r	.	1r	.	4r	.	2a/	lau-	4.cc\	cos-	.
.	.	.	.	4f/	Sec-	.	.	.	.	.
.	.	.	.	.	.	.	.	8dd\	.	.
.	.	.	.	4e/	cos-	2g#/	ro	4ee\	.	.
.	.	.	.	4e/	siil	.	.	4b\	siil	.
=22	=22	=22	=22	=22	=22	=22	=22	=22	=22	.
1r	.	2r	.	2a/	lau-	1r	.	2cc\	lau-	.
.	.	2e\	et	2g#/	ro	.	.	2b\	ro	><ANTIF_4v
=23	=23	=23	=23	=23	=23	=23	=23	=23	=23	.
2r	.	1c#\	i-	2r	.	1r	.	2r	.	.
2A\	et	.	.	2a/	et	.	.	2ee\	et	.
=24	=24	=24	=24	=24	=24	=24	=24	=24	=24	.
1D\	i-	1d\	o	1f#/	i-	2r	.	1dd\	i-	.
.	.	.	.	.	.	2a/	et	.	.	.
=25	=25	=25	=25	=25	=25	=25	=25	=25	=25	.
1G\	o	2d\	Tar-	1g/	o	1b\	i-	1dd\	o	><CON_5v
.	.	4d\	di	.	.	.	.	.	.	.
.	.	4d\	mia-	.	.	.	.	.	.	.
=26	=26	=26	=26	=26	=26	=26	=26	=26	=26	.
2c\	Tar-	2e\	ve-	2g/	Tar-	1cc\	o	1r	.	.
4c\	di	2e\	do	4g/	di	.	.	.	.	.
4c\	mia	.	.	4g/	mia	.	.	.	.	.
=27	=27	=27	=27	=27	=27	=27	=27	=27	=27	.
8F\L	ve-	4f\	ch'ei	2a/	ve-	2cc\	Tar-	1r	.	.
8G\J	.	.	.	.	.	.	.	.	.	.
8A\L	.	4f\	non	.	.	.	.	.	.	.
8B\J	.	.	.	.	.	.	.	.	.	.
4c\	.	4e\	&egrave;	2g/	do	4cc\	di	.	.	.
4G\	do	4d\	pi&ugrave;	.	.	4b\	mia	.	.	.
=28	=28	=28	=28	=28	=28	=28	=28	=28	=28	.
4A\	ch'ei	2c#\	mi-	4e/	ch'ei	4.a/	ve-	2ee\	Tar-	.
4A\	non	.	.	4e/	non	.	.	.	.	.
.	.	.	.	.	.	8g/	.	.	.	.
4D\	&egrave;	2d\	o.	4a/	&egrave;	2f/	.	4dd\	di	.
4D\	pi&ugrave;	.	.	4a/	pi&ugrave;	.	.	4dd\	mia-	.
=29	=29	=29	=29	=29	=29	=29	=29	=29	=29	.
2E\	mi-	1r	.	2g#/	mi-	2e/	do	4.b\	ve-	.
.	.	.	.	.	.	.	.	8b\	do	.
2A\	o.	.	.	2a/	o.	4e/	ch'ei	4cc\	ch'ei	.
.	.	.	.	.	.	4e/	non	4cc\	non	.
=30	=30	=30	=30	=30	=30	=30	=30	=30	=30	.
1r	.	1r	.	1r	.	4f/	&egrave;	4a/	&egrave;	.
.	.	.	.	.	.	4f/	pi&ugrave;	4dd\	pi&ugrave;	.
.	.	.	.	.	.	2e/	mi-	2cc#\	mi-	.
=31	=31	=31	=31	=31	=31	=31	=31	=31	=31	.
1r	.	2r	.	1a/	Ahi	1d/	o.	1dd\	o.	><<CON_4v
.	.	[2d\	Ahi	.	.	.	.	.	.	.
=32	=32	=32	=32	=32	=32	=32	=32	=32	=32	.
2r	.	2d\]	.	2f/	cie-	1r	.	1r	.	.
[2A\	Ahi	[2c\	cie-	2e/	co	.	.	.	.	.
=33	=33	=33	=33	=33	=33	=33	=33	=33	=33	.
2A\]	.	2c\]	.	2f/	e	1r	.	1r	.	.
[2G\	cie-	2B\	coein-	2d/	in-	.	.	.	.	.
=34	=34	=34	=34	=34	=34	=34	=34	=34	=34	.
2G\]	.	2c\	gius-	2e/	gius-	2r	.	1r	.	.
2F\	coein-	2A/	toA-	[2f/	toA-	[2a/	Ahi	.	.	.
=35	=35	=35	=35	=35	=35	=35	=35	=35	=35	.
2D\	gius-	1B-\	mo-	2f/]	.	2a/]	.	1r	.	.
2E\	toA-	.	.	4e/	mo-	2g/	cie-	.	.	.
.	.	.	.	4d/	.	.	.	.	.	.
=36	=36	=36	=36	=36	=36	=36	=36	=36	=36	.
1F\	mo-	1A/	re	4c/	.	4f/	coin-	2r	.	.
.	.	.	.	4A/	.	2c/	gius-	.	.	.
.	.	.	.	[2a/	.	.	.	4r	.	.
.	.	.	.	.	.	4d/	toA-	4a/	Il	<CON_5v
=37	=37	=37	=37	=37	=37	=37	=37	=37	=37	.
1E\	re	2r	.	2a/]	.	2e/	mo-	2cc\	far-	.
.	.	4r	.	2g#/	re	2e/	re	2b\	mi	>>
.	.	4e\	Il	.	.	.	.	.	.	.
=38	=38	=38	=38	=38	=38	=38	=38	=38	=38	.
1r	.	2f\	far-	1r	.	2r	.	2a/	tuo	.
.	.	2e\	mi	.	.	4r	.	2g#/	pri-	.
.	.	.	.	.	.	4e/	f&ugrave;	.	.	.
=39	=39	=39	=39	=39	=39	=39	=39	=39	=39	.
2r	.	2d\	tuo	2r	.	4f/	nul-	2a/	gion	.
.	.	.	.	.	.	4d/	lao	.	.	.
2A\	f&ugrave;	2c#\	pri-	2a/	Il	2e/	po-	4r	.	.
.	.	.	.	.	.	.	.	4ee\	f&ugrave;	.
=40	=40	=40	=40	=40	=40	=40	=40	=40	=40	.
4D\	nul-	4d\	gion	2a/	far-	2d/	co	4ff\	nul-	.
4F\	lao	4A/	f&ugrave;	.	.	.	.	4dd\	lao	.
2E\	po-	4c\	nul-	2g/	mi	2r	.	2ee\	po-	.
.	.	4B\	lao	.	.	.	.	.	.	.
=41	=41	=41	=41	=41	=41	=41	=41	=41	=41	.
2D\	co	2d\	po-	4f/	tuo	2r	.	4a/	co	.
.	.	.	.	4f/	pri-	.	.	4dd\	o	.
4r	.	2A/	co	2e/	gion	2a/	f&ugrave;	2cc#\	po-	.
4A\	f&ugrave;	.	.	.	.	.	.	.	.	.
=42	=42	=42	=42	=42	=42	=42	=42	=42	=42	.
4B-\	nul-	2r	.	4d/	f&ugrave;	4f/	nul-	2dd\	co	.
4G\	lao	.	.	2d/	nul-	4g/	lao	.	.	.
2A\	po-	4r	.	.	.	2e/	po-	2r	.	.
.	.	4e\	Et	4c/	lao	.	.	.	.	<<CON_3v
=43	=43	=43	=43	=43	=43	=43	=43	=43	=43	.
2D\	co	4f\	ch'ar-	2d/	po-	2d/	co	2a/	Et	.
.	.	4f\	des-	.	.	.	.	.	.	.
4r	.	4e\	seil	2A/	co	2r	.	4cc\	ch'ar-	>
4A\	Et	4f\	mio	.	.	.	.	4cc\	des-	.
=44	=44	=44	=44	=44	=44	=44	=44	=44	=44	.
4e\	ch'ar-	2g\	co-	1r	.	2r	.	4b\	seil	.
4c\	des-	.	.	.	.	.	.	4cc\	mio	.
4B\	seil	2G/	re	.	.	[2g/	Nel	2dd\	co-	<CON_5v_2mot
4B\	mio	.	.	.	.	.	.	.	.	.
=45	=45	=45	=45	=45	=45	=45	=45	=45	=45	.
2c\	co-	4r	.	2r	.	2g/]	.	1cc\	re	.
.	.	4c\	Nel	.	.	.	.	.	.	.
2A\	re	8c\L	tuo	4r	.	[2cc\	tuo	.	.	>>
.	.	8d\J	.	.	.	.	.	.	.	.
.	.	8e\L	.	4c/	Nel	.	.	.	.	.
.	.	8f\J	.	.	.	.	.	.	.	.
=46	=46	=46	=46	=46	=46	=46	=46	=46	=46	.
2r	.	4g\	.	8c/L	tuo	2cc\]	.	2r	.	.
.	.	.	.	8d/J	.	.	.	.	.	.
.	.	4c\	per-	8e/L	.	.	.	.	.	.
.	.	.	.	8f/J	.	.	.	.	.	.
2G\	Nel	4d\	pe-	[2g/	.	2b\	per-	4r	.	.
.	.	4d\	tuo	.	.	.	.	4dd\	Nel	.
=47	=47	=47	=47	=47	=47	=47	=47	=47	=47	.
2c\	tuo	2e\	fo-	2g/]	.	2cc\	pe-	8cc\L	tuo	.
.	.	.	.	.	.	.	.	8dd\J	.	.
.	.	.	.	.	.	.	.	8ee\L	.	.
.	.	.	.	.	.	.	.	8ff\J	.	.
2B\	per-	2d\	co.	4r	.	[2dd\	tuo	4gg\	.	.
.	.	.	.	4g/	Nel	.	.	4dd\	per-	.
=48	=48	=48	=48	=48	=48	=48	=48	=48	=48	.
2c\	pe-	1r	.	2g/	tuo	4dd\]	.	2ee\	pe-	.
.	.	.	.	.	.	2cc\	fo-	.	.	.
2d\	tuo	.	.	2f/	per-	.	.	2dd\	tuo	.
.	.	.	.	.	.	4b\	.	.	.	.
=49	=49	=49	=49	=49	=49	=49	=49	=49	=49	.
1c\	fo-	1r	.	4g/	pe-	[1cc\	co.	4ee\	fo-	.
.	.	.	.	4a/	tuo	.	.	2ff\	.	.
.	.	.	.	2g/	fo-	.	.	.	.	.
.	.	.	.	.	.	.	.	4ee\	.	.
=50	=50	=50	=50	=50	=50	=50	=50	=50	=50	.
2F\	co.	1a\	Ma	2f/	co.	1cc\]	.	2ff\	co.	>
2r	.	.	.	4r	.	.	.	4r	.	.
.	.	.	.	[4a/	Ma	.	.	[4ee\	Ma	<HOM_3v
=51	=51	=51	=51	=51	=51	=51	=51	=51	=51	.
1r	.	2e\	ch'io	4a/]	.	1r	.	4ee\]	.	.
.	.	.	.	4g/	ch'io	.	.	4ee\	ch'io	.
.	.	2f\	ve-	2a/	ve	.	.	2cc\	ve-	.
=52	=52	=52	=52	=52	=52	=52	=52	=52	=52	.
1r	.	4d\	dail	4a/	dail	1r	.	4dd\	dail	.
.	.	4c#\	bel	4a/	bel	.	.	4ee\	bel	.
.	.	2d\	lau-	8f/L	lau-	.	.	2ff\	lau-	.
.	.	.	.	8g/J	.	.	.	.	.	.
.	.	.	.	8a/L	.	.	.	.	.	.
.	.	.	.	8b/J	.	.	.	.	.	.
=53	=53	=53	=53	=53	=53	=53	=53	=53	=53	.
2r	.	1A/	ro	2cc\	.	1a/	Che	1ee\	ro	><CON_4v+1doub
[2A\	Che	.	.	4cc\	ro	.	.	.	.	.
.	.	.	.	[4cc\	Che	.	.	.	.	.
=54	=54	=54	=54	=54	=54	=54	=54	=54	=54	.
4A\]	.	1r	.	4cc\]	.	2e/	mi	1r	.	.
4A\	mi	.	.	4cc\	mi	.	.	.	.	.
2F\	f&ugrave;om-	.	.	2a/	f&ugrave;om-	2f/	f&ugrave;om-	.	.	.
=55	=55	=55	=55	=55	=55	=55	=55	=55	=55	.
4G\	bra	1r	.	4b-\	brae	4d/	brae	2r	.	.
4A\	res-	.	.	4a/	res-	4c#/	res-	.	.	.
2B\	tau-	.	.	4.f/	tau-	2d/	tau-	2dd\	Sec-	.
.	.	.	.	8g/	.	.	.	.	.	.
=56	=56	=56	=56	=56	=56	=56	=56	=56	=56	.
2A\	ro	2r	.	2a/	.	4e/	ro	2cc#\	car-	.
.	.	.	.	.	.	4e/	Sec-	.	.	.
2D\	Sec-	2d\	Sec-	2a/	ro	4f/	car-	2dd\	si&agrave;	.
.	.	.	.	.	.	4f/	si&agrave;	.	.	.
=57	=57	=57	=57	=57	=57	=57	=57	=57	=57	.
2A\	car-	2c#\	car-	4r	.	2e/	me	2ee\	me	.
.	.	.	.	4a/	Sec-	.	.	.	.	.
2B\	si&agrave;	2d\	si&agrave;	4f/	car-	2r	.	4r	.	.
.	.	.	.	4g/	si&agrave;	.	.	[4dd\	e	<CON_3v+1doub
=58	=58	=58	=58	=58	=58	=58	=58	=58	=58	.
2A\	me	2e\	me	1a/	me	2r	.	4dd\]	.	>
.	.	.	.	.	.	.	.	4cc\	per	.
2r	.	4r	.	.	.	4r	.	[2ff\	glial-	.
.	.	[4d\	e	.	.	[4a/	e	.	.	.
=59	=59	=59	=59	=59	=59	=59	=59	=59	=59	.
1r	.	4d\]	.	2r	.	4a/]	.	4ff\]	.	.
.	.	4c\	per	.	.	4a/	per	2ee\	tri	.
.	.	2f\	glial-	4r	.	2a/	glial-	.	.	.
.	.	.	.	[4a/	e	.	.	4dd\	fio-	.
=60	=60	=60	=60	=60	=60	=60	=60	=60	=60	.
1r	.	4e\	tri	4a/]	.	4cc\	tri	2ee\	ri-	.
.	.	4e\	fio-	4g/	per	4b\	fio-	.	.	.
.	.	2A/	ri-	2cc\	glial-	2a/	ri-	2ee\	re	.
=61	=61	=61	=61	=61	=61	=61	=61	=61	=61	.
2.E\	e	4e\	re	2b\	tri	1g#/	re	4r	.	><HOM_3v+imit_1v
.	.	2e\	e	.	.	.	.	2ee\	e	.
.	.	.	.	2b\	fio-	.	.	.	.	.
4E\	per	4e\	per	.	.	.	.	4ee\	per	.
=62	=62	=62	=62	=62	=62	=62	=62	=62	=62	.
2A\	glial-	2c#\	glial-	1a/	ri-	1r	.	2ee\	glial-	.
4D\	tri	4d\	tri	.	.	.	.	4ff\	tri	.
4C#/	fio-	4e\	fio-	.	.	.	.	4ee\	fio-	.
=63	=63	=63	=63	=63	=63	=63	=63	=63	=63	.
2D\	ri-	2f\	ri-	1a/	re	1r	.	2dd\	ri-	.
2A\	re	2e\	re	.	.	.	.	2cc#\	re	>
=64	=64	=64	=64	=64	=64	=64	=64	=64	=64	.
1r	.	4r	.	4r	.	2a/	Ques-	2r	.	<HOMlib_4v
.	.	4d\	Ques-	4f/	Ques-	.	.	.	.	.
.	.	4c\	t'&egrave;	4e/	t'&egrave;	4a/	t'&egrave;	4r	.	.
.	.	4B-\	quel	4d/	quel	4g/	quel	[4dd\	Ques-	.
=65	=65	=65	=65	=65	=65	=65	=65	=65	=65	.
1r	.	2A/	duol	4e/	duol	2a/	duol	4dd\]	.	.
.	.	.	.	4e/	ch'io	.	.	2cc\	t'&egrave;	.
.	.	[2d\	ch'io	4f/	non	2r	.	.	.	.
.	.	.	.	[4g/	pos-	.	.	4b-\	quel	.
=66	=66	=66	=66	=66	=66	=66	=66	=66	=66	.
1r	.	4d\]	.	4g/]	.	2r	.	2a/	duol	.
.	.	4d\	non	[4f/	so	.	.	.	.	.
.	.	2d\	pos-	8f/L]	.	[2a/	ch'io	4dd\	ch'io	.
.	.	.	.	8g/J	.	.	.	.	.	.
.	.	.	.	8a/L	.	.	.	4ff\	non	.
.	.	.	.	8b/J	.	.	.	.	.	.
=67	=67	=67	=67	=67	=67	=67	=67	=67	=67	.
1r	.	2c\	so	2cc\	.	4a/]	.	2ee\	pos-	.
.	.	.	.	.	.	4a/	non	.	.	.
.	.	2f\	sof-	4a/	sof-	2a/	pos-	4cc\	so	.
.	.	.	.	[4cc\	fri-	.	.	4a/	sof-	.
=68	=68	=68	=68	=68	=68	=68	=68	=68	=68	.
1r	.	2e\	fri-	8cc\L]	.	4g/	so	1ee\	fri-	.
.	.	.	.	8b\J	.	.	.	.	.	.
.	.	.	.	2a/	.	4cc\	sof-	.	.	.
.	.	2e\	re	.	.	2b\	fri-	.	.	.
.	.	.	.	4g/	.	.	.	.	.	.
=69	=69	=69	=69	=69	=69	=69	=69	=69	=69	.
2A\	Ques-	4r	.	4a/	re	2a/	re	2ee\	re	><CON_4v+1doub
.	.	4c\	Ques-	4e/	Ques-	.	.	.	.	.
4G\	t&egrave;	4B\	t&egrave;	4e/	t&egrave;	4r	.	2r	.	.
4F\	quel	4A/	quel	4d/	quel	[4a/	Ques-	.	.	.
=70	=70	=70	=70	=70	=70	=70	=70	=70	=70	.
2E\	duol	2B\	duol	2e/	duol	4a/]	.	1r	.	.
.	.	.	.	.	.	2g/	t'&egrave;	.	.	.
[2A\	ch'io	4c\	ch'io	4e/	ch'io	.	.	.	.	.
.	.	4d\	non	4d/	non	4f/	quel	.	.	.
=71	=71	=71	=71	=71	=71	=71	=71	=71	=71	.
4A\]	.	2e\	pos-	2c/	pos-	4e/	duol	1cc\	Ques-	.
4A\	non	.	.	.	.	2a/	ch'io	.	.	.
2A\	pos-	4e\	so	4c/	so	.	.	.	.	.
.	.	4e\	sof-	4c/	sof-	4a/	non	.	.	.
=72	=72	=72	=72	=72	=72	=72	=72	=72	=72	.
2F\	so	4.f\	fri-	2d/	fri-	2a/	pos-	2a/	t'&egrave;	.
.	.	8e\	.	.	.	.	.	.	.	.
2B\	sof-	2d\	.	2d/	re	4f/	so	2dd\	quel	.
.	.	.	.	.	.	4g/	sof-	.	.	.
=73	=73	=73	=73	=73	=73	=73	=73	=73	=73	.
[1A\	fri-	4e\	re	2r	.	[1a/	fri-	4cc\	duol	.
.	.	2c\	ch'io	.	.	.	.	2ee\	ch'io	.
.	.	.	.	[2e/	ch'io	.	.	.	.	.
.	.	4c\	non	.	.	.	.	4ee\	non	.
=74	=74	=74	=74	=74	=74	=74	=74	=74	=74	.
1A\_	.	2c\	pos-	4e/]	.	1a/_	.	2ee\	pos-	.
.	.	.	.	4e/	non	.	.	.	.	.
.	.	4A/	so	2e/	pos-	.	.	[2cc\	so	.
.	.	[4e\	sof-	.	.	.	.	.	.	.
=75	=75	=75	=75	=75	=75	=75	=75	=75	=75	.
1A\_	.	4e\]	.	2c/	so	1a/_	.	2cc\]	.	.
.	.	2f\	fri-	.	.	.	.	.	.	.
.	.	.	.	2f/	sof-	.	.	2dd\	sof-	.
.	.	8e\L	.	.	.	.	.	.	.	.
.	.	8d\J	.	.	.	.	.	.	.	.
=76	=76	=76	=76	=76	=76	=76	=76	=76	=76	.
1A\]	.	4c#\	.	1e/	fri-	1a/]	.	4ee\	fri-	.
.	.	4d\	.	.	.	.	.	2dd\	.	.
.	.	2e\	.	.	.	.	.	.	.	.
.	.	.	.	.	.	.	.	4cc\	.	.
=77	=77	=77	=77	=77	=77	=77	=77	=77	=77	.
1D\	re.	1f#\	re.	1d/	re.	1a/	re.	1dd\	re.	>
==	==	==	==	==	==	==	==	==	==	==
*-	*-	*-	*-	*-	*-	*-	*-	*-	*-	*-